src/lib/packages/icons/src/assets/line/times-square.svg

<svg width="24" height="24" viewBox="0 0 24 24" fill="none" xmlns="http://www.w3.org/2000/svg">
<path d="M17.625 2.25H6.375C3.715 2.25 2.25 3.715 2.25 6.375V17.625C2.25 20.285 3.715 21.75 6.375 21.75H17.625C20.285 21.75 21.75 20.285 21.75 17.625V6.375C21.75 3.715 20.285 2.25 17.625 2.25ZM20.25 17.625C20.25 19.465 19.465 20.25 17.625 20.25H6.375C4.535 20.25 3.75 19.465 3.75 17.625V6.375C3.75 4.535 4.535 3.75 6.375 3.75H17.625C19.465 3.75 20.25 4.535 20.25 6.375V17.625ZM15.53 9.53003L13.06 12L15.53 14.47C15.823 14.763 15.823 15.238 15.53 15.531C15.384 15.677 15.192 15.751 15 15.751C14.808 15.751 14.616 15.678 14.47 15.531L12 13.061L9.53003 15.531C9.38403 15.677 9.192 15.751 9 15.751C8.808 15.751 8.61597 15.678 8.46997 15.531C8.17697 15.238 8.17697 14.763 8.46997 14.47L10.94 12L8.46997 9.53003C8.17697 9.23703 8.17697 8.76199 8.46997 8.46899C8.76297 8.17599 9.23801 8.17599 9.53101 8.46899L12.001 10.939L14.471 8.46899C14.764 8.17599 15.239 8.17599 15.532 8.46899C15.823 8.76199 15.823 9.23803 15.53 9.53003Z" fill="currentColor"/>
</svg>

<svg xmlns="http://www.w3.org/2000/svg" width="24" height="24" fill="none"><path fill="currentColor" d="M17.625 2.25H6.375c-2.66 0-4.125 1.465-4.125 4.125v11.25c0 2.66 1.465 4.125 4.125 4.125h11.25c2.66 0 4.125-1.465 4.125-4.125V6.375c0-2.66-1.465-4.125-4.125-4.125Zm2.625 15.375c0 1.84-.785 2.625-2.625 2.625H6.375c-1.84 0-2.625-.785-2.625-2.625V6.375c0-1.84.785-2.625 2.625-2.625h11.25c1.84 0 2.625.785 2.625 2.625v11.25ZM15.53 9.53 13.06 12l2.47 2.47a.75.75 0 0 1-1.06 1.061L12 13.061l-2.47 2.47a.748.748 0 0 1-1.06 0 .75.75 0 0 1 0-1.061L10.94 12 8.47 9.53a.75.75 0 1 1 1.061-1.061l2.47 2.47 2.47-2.47A.75.75 0 1 1 15.53 9.53Z"/></svg>
